-----BEGIN PGP SIGNATURE-----

iQIzBAABCgAdFiEEsTEWDu3l5iRmsX3XINK0nobY54cFAmpo26IACgkQINK0nobY
54ctgg//efdmYGux4j1+w032PMsHrjA3RJ0Az72LfdTJoUIfAI4PD7QPwts2T0Kr
k7u3Y1GreTB6bfwlPB+sst1wCiBgDjsTONPxqi0pNe/xK0SUurKnpgMI6NQgEk5B
yNS7XWo50EDSBeNhTmUFz1VRQYPFe2lUCCZzUl1h8wUUVwX5or4q23af6ieU0ehO
Tm9v5VmKANYC26JuXVxicGg8lcto81mpV9d6hD4xt6UHqzb8pgodJF+okWOro9Al
zVfm455ibUcDKahgrS36p8b+9ExXlwBkbxBJBvU+WtudZzWYWudKY2IeSdGD4cUa
i71MboXuaFbyKFCLOkCQQOQ+ZiyN6vk9zrmLQajZNiwD7yx/OIJ/UYbxOArk8fdt
2xHw9IJlbPGkuUWNzRSi8AxPmPGkvTnrzeSNv1+vHvntP1pKLEJFV5brGqMlyjJs
rN7LwHEHkRQi1xsQkxq7W6S+ApRJpGc23Bi3uXnWp2swxbiEBf2RS1oNeG7u/l8q
pe9wMJq6rL162e3FHj7NZiRQYNMH0zB8YfyDHvYrSxctJ6WFOC5cggxfO+fW2eAK
iLH4vuSpDMRfASxv8tt+DMAmUrZ5PpQ9I7fdtHaH4u2Ndy4o7Jqt4fO/eRib91BY
mYAF9+xOHBo/cBCGx2tWZ4gEx2i+jRiTX02yaZ2mz16M5uI7tyY=
=FRR1
-----END PGP SIGNATURE-----
